images/illu-disc-visualization.svg

<svg xmlns="http://www.w3.org/2000/svg" viewBox="0 0 200 200" enable-background="new 0 0 200 200"><circle fill="#E0AC00" cx="100" cy="100" r="100"/><path fill="#EFD580" d="M88.2 86.1c1-8.8 5.4-16.6 11.8-22-5.9-5.1-13.6-8.1-22-8.1-18.8 0-34 15.2-34 34 0 14.6 9.3 27.1 22.2 31.9-.1-1.3-.2-2.6-.2-3.9 0-14.6 9.3-27.1 22.2-31.9zm67.8 3.9c0-18.8-15.2-34-34-34-8.4 0-16.1 3-22 8.1 6.4 5.4 10.8 13.2 11.8 22 13 4.8 22.2 17.3 22.2 31.9 0 1.3-.1 2.6-.2 3.9 12.9-4.8 22.2-17.3 22.2-31.9zm-56 25.9c-5.9 5-13.6 8.1-22 8.1-4.1 0-8.1-.7-11.8-2.1 2 16.9 16.3 30.1 33.8 30.1s31.8-13.2 33.8-30.1c-3.7 1.4-7.6 2.1-11.8 2.1-8.4 0-16.1-3-22-8.1z"/><path fill="#F7EABF" d="M100 115.9c-7.3-6.2-12-15.5-12-25.9 0-1.3.1-2.6.2-3.9-12.9 4.8-22.2 17.3-22.2 31.9 0 1.3.1 2.6.2 3.9 3.7 1.4 7.6 2.1 11.8 2.1 8.4 0 16.1-3 22-8.1zm11.8-29.8c.1 1.3.2 2.6.2 3.9 0 10.4-4.7 19.7-12 25.9 5.9 5 13.6 8.1 22 8.1 4.1 0 8.1-.7 11.8-2.1.1-1.3.2-2.6.2-3.9 0-14.6-9.3-27.1-22.2-31.9zm-23.6 0c3.7-1.4 7.6-2.1 11.8-2.1s8.1.7 11.8 2.1c-1-8.8-5.4-16.6-11.8-22-6.4 5.4-10.8 13.2-11.8 22z"/><path fill="#fff" d="M88.2 86.1c-.1 1.3-.2 2.6-.2 3.9 0 10.4 4.7 19.7 12 25.9 7.3-6.2 12-15.5 12-25.9 0-1.3-.1-2.6-.2-3.9-3.7-1.4-7.6-2.1-11.8-2.1s-8.1.7-11.8 2.1z"/></svg>

<?xml version="1.0" encoding="utf-8"?>
<!-- Generator: Adobe Illustrator 17.1.0, SVG Export Plug-In . SVG Version: 6.00 Build 0)  -->
<!DOCTYPE svg PUBLIC "-//W3C//DTD SVG 1.1//EN" "http://www.w3.org/Graphics/SVG/1.1/DTD/svg11.dtd">
<svg version="1.1" id="Layer_1" xmlns="http://www.w3.org/2000/svg" xmlns:xlink="http://www.w3.org/1999/xlink" x="0px" y="0px"
	 width="200px" height="200px" viewBox="0 0 200 200" enable-background="new 0 0 200 200" xml:space="preserve">
<circle fill="#E0AC00" cx="100" cy="100" r="100"/>
<path fill="#EFD580" d="M88.2,86.1c1-8.8,5.4-16.6,11.8-22C94.1,59,86.4,56,78,56c-18.8,0-34,15.2-34,34c0,14.6,9.3,27.1,22.2,31.9
	c-0.1-1.3-0.2-2.6-0.2-3.9C66,103.4,75.3,90.9,88.2,86.1z"/>
<path fill="#EFD580" d="M156,90c0-18.8-15.2-34-34-34c-8.4,0-16.1,3-22,8.1c6.4,5.4,10.8,13.2,11.8,22c13,4.8,22.2,17.3,22.2,31.9
	c0,1.3-0.1,2.6-0.2,3.9C146.7,117.1,156,104.6,156,90z"/>
<path fill="#EFD580" d="M100,115.9c-5.9,5-13.6,8.1-22,8.1c-4.1,0-8.1-0.7-11.8-2.1C68.2,138.8,82.5,152,100,152
	s31.8-13.2,33.8-30.1c-3.7,1.4-7.6,2.1-11.8,2.1C113.6,124,105.9,121,100,115.9z"/>
<path fill="#F7EABF" d="M100,115.9c-7.3-6.2-12-15.5-12-25.9c0-1.3,0.1-2.6,0.2-3.9C75.3,90.9,66,103.4,66,118
	c0,1.3,0.1,2.6,0.2,3.9c3.7,1.4,7.6,2.1,11.8,2.1C86.4,124,94.1,121,100,115.9z"/>
<path fill="#F7EABF" d="M111.8,86.1c0.1,1.3,0.2,2.6,0.2,3.9c0,10.4-4.7,19.7-12,25.9c5.9,5,13.6,8.1,22,8.1c4.1,0,8.1-0.7,11.8-2.1
	c0.1-1.3,0.2-2.6,0.2-3.9C134,103.4,124.7,90.9,111.8,86.1z"/>
<path fill="#F7EABF" d="M88.2,86.1c3.7-1.4,7.6-2.1,11.8-2.1s8.1,0.7,11.8,2.1c-1-8.8-5.4-16.6-11.8-22
	C93.6,69.5,89.2,77.3,88.2,86.1z"/>
<path fill="#FFFFFF" d="M88.2,86.1C88.1,87.4,88,88.7,88,90c0,10.4,4.7,19.7,12,25.9c7.3-6.2,12-15.5,12-25.9c0-1.3-0.1-2.6-0.2-3.9
	c-3.7-1.4-7.6-2.1-11.8-2.1S91.9,84.7,88.2,86.1z"/>
</svg>
